X:1
T:Title
%%score { ( 1 3 ) | ( 2 4 ) }
L:1/8
Q:1/4=100
M:4/4
K:Eb
V:1 treble nm="Grand Piano"
V:3 treble 
V:2 bass 
V:4 bass 
V:1
 G2 E2 [GB]2 [EG]2 | [DF]3 [DG] E4 | c2 B2 A2 G2 | z4 [DB]4 | e2 A2 z4 | [Ec]2 [Ee]2 [EB]4 | %6
w: A.~B.~Simpson * * *||||||
 [Ge]2 d[Dc] [GB]2 G2 | c2 e2 G2 [DF]2 | E2 FG B2 [EG]2 | [EA]2 [EB]2 [Ec]4 | e2 z2 z4 | %11
w: |||||
 [DF]3 E E4 | E>F GA B2 ce | B6 z2 | c3 B A2 G2 | F6 z2 | [Fd]>e f[Ad] [Ge]2 [Ac][Ae] | %17
w: ||||||
 B2- [AB-][AB-] [GB]2 z2 | A3 G [DF]2 [DF]2 | E6 z2 |] %20
w: |||
V:2
 [E,B,E]2 [E,G,]2 [E,E]2 [E,B,]2 | [B,,B,]3 [B,,B,] [E,G,]4 | [A,E]2 [G,B,E]2 [F,B,D]2 [E,B,E]2 | %3
 z4 F,2 z2 | [G,E]B, z D E,2 E,2 | A,2 [C,A,]2 [E,G,]4 | [E,B,]2 .[E,C]2 [E,E]2 [E,B,E]2 | %7
 [A,E]2 [A,CE]2 [B,E]2 [B,,B,]2 | z2 .A,2 z4 | [C,A,]2 [B,,G,]2 [A,,A,]4 | %10
 .[A,CE]2 [=A,C_G]2 [B,E=G]2[K:bass] [B,E]2 | [B,,A,]3 [E,G,] [E,G,]4 | %12
 [E,G,]>[E,A,E] [E,B,E][F,B,D] [G,B,E]2 [A,E][A,CE] | [G,B,E]2 [F,B,][F,B,] [G,B,]2 z2 | %14
 [A,E]3 [G,B,E] [F,B,D]2 [E,B,E]2 | [B,,B,]2 [C,=A,][C,A,] [B,,B,]2 z2 | %16
 [B,,B,]>[K:treble][B,G] [B,DA][K:bass][F,B,] [E,B,]2 [E,A,][E,C] | [E,E]2 [B,D][B,D] [E,E]2 z2 | %18
 [A,CF]3 [B,E][K:bass] [B,,B,]2 [B,,A,]2 | G,2 z2 z4 |] %20
V:3
 x8 | x8 | x8 | [EF]2 [E=A]2 z2 A,2 | z G[Cd]c [EGB]2 [B,EG]2 | x8 | z2 A2 z4 | x8 | x8 | x8 | %10
 z Fdc B2 G2 | x8 | x8 | z2 DD E2 z2 | x8 | D2 EE D2 z2 | x8 | G2 z2 z4 | x8 | z2 C2 B,2 z2 |] %20
V:4
 x8 | x8 | x8 | [C,=A,]2 [F,,F,]2 B,,4 | E,2 E,2 z4 | x8 | x8 | x8 | %8
 [E,G,]2 [E,E]-[E,B,E] [E,G,E]2 [_D,B,]2 | x8 | x6[K:bass] x2 | x8 | x8 | x8 | x8 | x8 | %16
 x3/2[K:treble] x3/2[K:bass] x5 | x8 | x4[K:bass] x4 | E,2- [E,-A,]2 [E,G,]2 z2 |] %20

